X: 4403
T: Bond Store, The
R: reel
M: 4/4
K: Gmajor
GB~B2 dGBd|cdec dBGB|ce~e2 dBGB|A2BG AGEF|
GB~B2 dGBd|cdec dBGB|ce~e2 dBGB|1 ADFA G2 (3DEF:|2 ADFA GABc||
|:dg~g2 edBe|d2BG AGEG|dg~g2 edBd|eaag agef|
gd (3Bcd ed (3Bcd|c2Bc AGEG|~c3e dBGB|1 ADFA GABc:|2 ADFA G2 (3DEF||

